src/assets/filled/Bluetooth.svg

<?xml version="1.0" encoding="UTF-8"?>
<svg width="24" height="24" viewBox="0 0 24 24" xmlns="http://www.w3.org/2000/svg">
 <path d="m12.93 10.64 2.33-2.13-2.33-1.87v4z"/>
 <path d="m16.19 2h-8.38c-3.64 0-5.81 2.17-5.81 5.81v8.37c0 3.65 2.17 5.82 5.81 5.82h8.37c3.64 0 5.81-2.17 5.81-5.81v-8.38c0.01-3.64-2.16-5.81-5.8-5.81zm0.08 12.39c0.31 0.29 0.49 0.69 0.48 1.1s-0.2 0.8-0.53 1.08l-2.42 2.02c-0.42 0.35-0.8 0.45-1.09 0.45-0.23 0-0.41-0.06-0.51-0.11-0.23-0.11-0.77-0.47-0.77-1.45v-3.42l-2.92 2.68c-0.3 0.28-0.78 0.26-1.06-0.05s-0.26-0.78 0.05-1.06l3.93-3.6v-0.08l-3.94-3.57c-0.3-0.28-0.32-0.76-0.04-1.06s0.76-0.33 1.06-0.05l2.92 2.68v-3.42c0-0.98 0.54-1.34 0.77-1.45s0.85-0.29 1.6 0.34l2.42 2.02c0.33 0.27 0.52 0.67 0.53 1.08s-0.16 0.81-0.48 1.1l-2.6 2.38 2.6 2.39z"/>
 <path d="m12.93 17.36 2.33-1.95-2.33-2.11v4.06z"/>
</svg>

<svg width="24" height="24" viewBox="0 0 24 24"  xmlns="http://www.w3.org/2000/svg">
<path d="M12.9299 10.6396L15.2599 8.50965L12.9299 6.63965V10.6396Z" />
<path d="M16.19 2H7.81C4.17 2 2 4.17 2 7.81V16.18C2 19.83 4.17 22 7.81 22H16.18C19.82 22 21.99 19.83 21.99 16.19V7.81C22 4.17 19.83 2 16.19 2ZM16.27 14.39C16.58 14.68 16.76 15.08 16.75 15.49C16.74 15.9 16.55 16.29 16.22 16.57L13.8 18.59C13.38 18.94 13 19.04 12.71 19.04C12.48 19.04 12.3 18.98 12.2 18.93C11.97 18.82 11.43 18.46 11.43 17.48V14.06L8.51 16.74C8.21 17.02 7.73 17 7.45 16.69C7.17 16.38 7.19 15.91 7.5 15.63L11.43 12.03V11.95L7.49 8.38C7.19 8.1 7.17 7.62 7.45 7.32C7.73 7.02 8.21 6.99 8.51 7.27L11.43 9.95V6.53C11.43 5.55 11.97 5.19 12.2 5.08C12.43 4.97 13.05 4.79 13.8 5.42L16.22 7.44C16.55 7.71 16.74 8.11 16.75 8.52C16.76 8.93 16.59 9.33 16.27 9.62L13.67 12L16.27 14.39Z" />
<path d="M12.9299 17.3598L15.2599 15.4098L12.9299 13.2998V17.3598Z" />
</svg>
